img/consultation-image.svg

<svg xmlns="http://www.w3.org/2000/svg" width="3.528cm" height="3.528cm">
  <path fill="#F39D77" fill-rule="evenodd" d="M91.208 41.024H74.84L63.977 51.887c-1.839 1.839-5.002.531-5.002-2.072v-8.791h-2.93c-4.847 0-8.791-3.944-8.791-8.791V8.791C47.254 3.944 51.198 0 56.045 0h35.163C96.056 0 100 3.944 100 8.791v23.442c0 4.847-3.944 8.791-8.792 8.791zm2.931-32.233a2.935 2.935 0 0 0-2.931-2.931H56.045a2.935 2.935 0 0 0-2.931 2.931v23.442a2.935 2.935 0 0 0 2.931 2.931h5.86a2.93 2.93 0 0 1 2.931 2.93v4.647l6.719-6.719a2.927 2.927 0 0 1 2.072-.858h17.581a2.935 2.935 0 0 0 2.931-2.931V8.791zm-8.791 8.791H61.905a2.93 2.93 0 0 1 0-5.861h23.443a2.93 2.93 0 0 1 0 5.861zm-23.443 5.86h11.722a2.93 2.93 0 0 1 0 5.861H61.905a2.93 2.93 0 0 1 0-5.861zM32.998 37.993a6.654 6.654 0 0 0 0 9.418L52.65 66.998c.001.002.003.002.003.004a6.657 6.657 0 0 0 9.419 0l5.651-5.651a8.785 8.785 0 0 1 12.432 0l12.432 12.431c3.428 3.428 3.428 9.005 0 12.433l-4.143 4.144-.002.001c-13.357 13.357-33.37 12.213-45.207.376L9.265 56.832c-13.089-13.089-11.716-34.049.375-45.21l4.144-4.145a8.787 8.787 0 0 1 12.432 0L38.648 19.91a8.785 8.785 0 0 1 0 12.432l-5.65 5.651zm55.445 44.078a2.933 2.933 0 0 0 0-4.144L76.011 65.495a2.929 2.929 0 0 0-4.144 0l-2.072 2.072 16.576 16.576 2.072-2.072zM11.792 17.917c-8.425 10.141-7.888 25.266 1.616 34.769L47.377 86.59c9.577 9.577 24.672 10.027 34.772 1.619L65.631 71.691c-4.929 4.348-12.425 4.151-17.121-.545L28.857 51.559c-4.724-4.724-4.876-12.22-.549-17.125L11.792 17.917zm22.712 6.137L22.072 11.622a2.931 2.931 0 0 0-4.143 0l-2.073 2.072L32.432 30.27l2.072-2.072a2.927 2.927 0 0 0 0-4.144z"/>
</svg>

<svg
 xmlns="http://www.w3.org/2000/svg"
 xmlns:xlink="http://www.w3.org/1999/xlink"
 width="3.528cm" height="3.528cm">
<path fill-rule="evenodd"  fill="rgb(243, 157, 119)"
 d="M91.208,41.024 L74.840,41.024 L63.977,51.887 C62.138,53.726 58.975,52.418 58.975,49.815 L58.975,41.024 L56.045,41.024 C51.198,41.024 47.254,37.080 47.254,32.233 L47.254,8.791 C47.254,3.944 51.198,-0.000 56.045,-0.000 L91.208,-0.000 C96.056,-0.000 100.000,3.944 100.000,8.791 L100.000,32.233 C100.000,37.080 96.056,41.024 91.208,41.024 ZM94.139,8.791 C94.139,7.175 92.824,5.860 91.208,5.860 L56.045,5.860 C54.429,5.860 53.114,7.175 53.114,8.791 L53.114,32.233 C53.114,33.849 54.429,35.164 56.045,35.164 L61.905,35.164 C63.524,35.164 64.836,36.476 64.836,38.094 L64.836,42.741 L71.555,36.022 C72.104,35.472 72.850,35.164 73.627,35.164 L91.208,35.164 C92.824,35.164 94.139,33.849 94.139,32.233 L94.139,8.791 ZM85.348,17.582 L61.905,17.582 C60.287,17.582 58.975,16.270 58.975,14.651 C58.975,13.033 60.287,11.721 61.905,11.721 L85.348,11.721 C86.966,11.721 88.278,13.033 88.278,14.651 C88.278,16.270 86.966,17.582 85.348,17.582 ZM61.905,23.442 L73.627,23.442 C75.245,23.442 76.557,24.754 76.557,26.372 C76.557,27.991 75.245,29.303 73.627,29.303 L61.905,29.303 C60.287,29.303 58.975,27.991 58.975,26.372 C58.975,24.754 60.287,23.442 61.905,23.442 ZM32.998,37.993 C30.394,40.596 30.395,44.809 32.998,47.411 L52.650,66.998 C52.651,67.000 52.653,67.000 52.653,67.002 C55.257,69.605 59.469,69.604 62.072,67.002 L67.723,61.351 C71.158,57.915 76.719,57.915 80.155,61.351 L92.587,73.782 C96.015,77.210 96.015,82.787 92.587,86.215 L88.444,90.359 C88.443,90.359 88.442,90.360 88.442,90.360 C75.085,103.717 55.072,102.573 43.235,90.736 L9.265,56.832 C-3.824,43.743 -2.451,22.783 9.640,11.622 C9.640,11.622 13.767,7.494 13.784,7.477 C17.220,4.042 22.780,4.042 26.216,7.477 L38.648,19.910 C42.084,23.346 42.084,28.907 38.648,32.342 L32.998,37.993 ZM88.443,82.071 C89.586,80.928 89.586,79.069 88.443,77.927 L76.011,65.495 C74.866,64.350 73.012,64.350 71.867,65.495 L69.795,67.567 L86.371,84.143 L88.443,82.071 ZM11.792,17.917 C3.367,28.058 3.904,43.183 13.408,52.686 L47.377,86.590 C56.954,96.167 72.049,96.617 82.149,88.209 L65.631,71.691 C60.702,76.039 53.206,75.842 48.510,71.146 L28.857,51.559 C24.133,46.835 23.981,39.339 28.308,34.434 L11.792,17.917 ZM34.504,24.054 L22.072,11.622 C20.930,10.479 19.070,10.479 17.929,11.622 L15.856,13.694 L32.432,30.270 L34.504,28.198 C35.650,27.053 35.650,25.199 34.504,24.054 Z"/>
</svg>
